packages/foundations/assets/icons/functional/images/communication/speech_bubble_question_mark_24_filled.svg

<svg xmlns="http://www.w3.org/2000/svg" width="20" height="20" fill="none"><path fill="#1A1C1F" fill-rule="evenodd" d="M4.104 2.037c-.843.142-1.6.757-1.926 1.564-.185.458-.177.123-.177 7.106C2 17.154 2 17.164 2.069 17.348a1.1 1.1 0 0 0 .521.555c.127.062.215.078.427.079.432 0 .43.002 1.886-1.479.891-.906 1.329-1.329 1.446-1.393l.168-.093L11.233 15l4.717-.017.233-.078q1.17-.396 1.626-1.463c.2-.468.194-.316.183-5.059-.012-4.857.009-4.452-.261-5a2.5 2.5 0 0 0-1.298-1.187c-.488-.188-.051-.176-6.35-.182-3.33-.004-5.876.006-5.979.023M11 3.951c.119.03.357.123.529.205.258.123.362.198.588.422.223.221.3.325.409.555.173.363.221.595.219 1.05-.004.867-.289 1.405-1.152 2.174-.592.527-.574.495-.587 1.051l-.011.459H9v-.442c0-.243.016-.539.035-.658.08-.501.348-.854.998-1.313.616-.435.742-.596.743-.948 0-.191-.055-.296-.221-.42-.14-.104-.686-.117-1.054-.024-.231.059-.381.116-.854.325-.022.01-.173-.338-.375-.86l-.339-.877.092-.075c.197-.163.818-.447 1.223-.561.557-.157 1.283-.183 1.752-.063m-.592 7.002c.62.218.895.987.568 1.587a1.08 1.08 0 0 1-.976.574 1.04 1.04 0 0 1-.725-.263c-.819-.736-.264-2.061.821-1.962.098.009.239.038.312.064"/></svg>

<svg width="20" height="20" viewBox="0 0 20 20" fill="none" xmlns="http://www.w3.org/2000/svg"><path d="M4.104 2.037 C 3.261 2.179,2.504 2.794,2.178 3.601 C 1.993 4.059,2.001 3.724,2.001 10.707 C 2.000 17.154,2.000 17.164,2.069 17.348 C 2.151 17.568,2.360 17.790,2.590 17.903 C 2.717 17.965,2.805 17.981,3.017 17.982 C 3.449 17.982,3.447 17.984,4.903 16.503 C 5.794 15.597,6.232 15.174,6.349 15.110 L 6.517 15.017 11.233 15.000 L 15.950 14.983 16.183 14.905 C 16.963 14.642,17.506 14.153,17.809 13.442 C 18.009 12.974,18.003 13.126,17.992 8.383 C 17.980 3.526,18.001 3.931,17.731 3.383 C 17.470 2.854,16.983 2.409,16.433 2.196 C 15.945 2.008,16.382 2.020,10.083 2.014 C 6.753 2.010,4.207 2.020,4.104 2.037 M11.000 3.951 C 11.119 3.981,11.357 4.074,11.529 4.156 C 11.787 4.279,11.891 4.354,12.117 4.578 C 12.340 4.799,12.417 4.903,12.526 5.133 C 12.699 5.496,12.747 5.728,12.745 6.183 C 12.741 7.050,12.456 7.588,11.593 8.357 C 11.001 8.884,11.019 8.852,11.006 9.408 L 10.995 9.867 9.997 9.867 L 9.000 9.867 9.000 9.425 C 9.000 9.182,9.016 8.886,9.035 8.767 C 9.115 8.266,9.383 7.913,10.033 7.454 C 10.649 7.019,10.775 6.858,10.776 6.506 C 10.776 6.315,10.721 6.210,10.555 6.086 C 10.415 5.982,9.869 5.969,9.501 6.062 C 9.270 6.121,9.120 6.178,8.647 6.387 C 8.625 6.397,8.474 6.049,8.272 5.527 L 7.933 4.650 8.025 4.575 C 8.222 4.412,8.843 4.128,9.248 4.014 C 9.805 3.857,10.531 3.831,11.000 3.951 M10.408 10.953 C 11.028 11.171,11.303 11.940,10.976 12.540 C 10.779 12.903,10.419 13.114,10.000 13.114 C 9.710 13.114,9.471 13.027,9.275 12.851 C 8.456 12.115,9.011 10.790,10.096 10.889 C 10.194 10.898,10.335 10.927,10.408 10.953 " fill="#1A1C1F" stroke="none" fill-rule="evenodd"></path></svg>
